X:36
T:The Road to Nowhere
C:Laurence Beaudry
N: Laurence Beaudry, Reproduced with Permission
Z:robin.beech@mcgill.ca
R:waltz
M:3/4
L:1/4
K:G
G2B | B>cd | d>ef | a2g | c>eg | f>dB | e>gB | A>FD |
B2d | e>ce | f>ga | b2g | cea | Bdg | f>ef | "fine"g3 |:
F>cd | dec | G>Bd | dec | F>cd |fed | GBd | ged |
d>ff | fed | d>gg | ged |1^c>ea | ge^c | de^c | d=cA :|2
c>aa | age | A>fe | "D.C. al fine" dcA |]
